X:1
T:Title
%%score { ( 1 3 ) | ( 2 4 ) }
L:1/8
Q:1/4=100
M:4/4
K:Eb
V:1 treble nm="Grand Piano"
V:3 treble 
V:2 bass 
V:4 bass 
V:1
 [GB]2 G>F E2 G[FA] | [GB]2 [_G=A][Gc] [=GB] G3 | e2 dc B2 EG | z4 [DF]4 | B2 G>F E2 G[FA] | %5
w: A.~H.~Ackley * * * * *|||||
 [GB]2 [_G=A][Gc] [=GB] G3 | e2 dc B2 E[CEA] | [B,EG]2 [G,B,E]>[A,B,F] [G,B,E]4 | %8
w: |||
 [B,DF]2 [B,DF]>[B,EG] [B,FA]4 | [B,EG]2 [B,EG]>[B,FA] [EGB]4 | [EAc][Ae][Bd][Ac] [GB]GFE | %11
w: |||
 GF F<G z2 A,2 | B2 G>F E2 G[FA] | [GB]2 [_G=A][=GB] [B_d] c3 | e2 dc B2 EA | G2 E<F E4 |] %16
w: |||||
V:2
 [E,E]2 [E,B,E]>[E,A,E] [E,G,]2 [E,B,E][E,B,] | [E,E]2 [E,C][E,=A,] [E,B,] [E,B,E]3 | %2
 [G,B,E]2 [A,B,E][A,E] [E,G,E]2 [E,G,][E,B,E] | [F,=A,E]2 [F,A,E]>[F,A,] B,2 z2 | %4
 [E,G,E]2 [E,B,E]>[E,A,E] [E,G,]2 [E,B,E][E,B,] | [E,E]2 [E,C][E,=A,] [E,B,] [E,B,E]3 | %6
 [G,B,E]2 [A,CE][A,E] [G,E]2 [C,C]A,, | B,,2 B,,>C, E,4 | B,,2 B,,>B,, .B,,2 C,D, | %9
 E,2 E,>E, .E,2 F,G, | A,[A,C][A,D][A,E] [E,E][E,B,E][E,A,E][E,G,] | %11
 [F,=A,E][F,A,E] [F,A,E]<[F,A,E] B,2 z2 | [E,G,E]2 [E,B,E]>[E,A,E] [E,G,]2 [E,B,E][E,B,] | %13
 [E,E]2 [E,E][E,E] [E,E][K:treble] [A,EA]3 | [A,CA]2 [A,CE][=A,E_G] [B,E=G]2 [G,B,][A,CF] | %15
 [B,E]2 [B,,G,B,]<[B,,A,B,] [E,G,B,]4 |] %16
V:3
 x8 | x8 | x8 | G2 F>E z2 A,2 | x8 | x8 | x8 | x8 | x8 | x8 | x8 | z4 [DF]4 | x8 | x8 | x8 | x8 |] %16
V:4
 x8 | x8 | x8 | z4 B,,4 | x8 | x8 | x8 | x8 | z4 z B,,3 | z4 z E,3 | x8 | z4 B,,4 | x8 | %13
 x5[K:treble] x3 | x8 | x8 |] %16

